assets/Raccoon/Flat/raccoon_flat.svg

<svg width="32" height="32" viewBox="0 0 32 32" fill="none" xmlns="http://www.w3.org/2000/svg">
<path d="M4.00244 9.57V8.34C4.00244 7.6 4.60244 7 5.34244 7H6.57244C8.25418 7 9.87413 7.63554 11.1089 8.76564C12.5445 7.9231 14.2154 7.43994 16.0024 7.43994C17.7917 7.43994 19.4646 7.92431 20.8991 8.77111C22.1335 7.63449 23.7521 7 25.4325 7H26.6625C27.4025 7 28.0025 7.6 28.0025 8.34V9.57C28.0025 11.2867 27.3402 12.939 26.1657 14.1829L29.3024 17.9199C30.0524 18.7999 30.2124 20.0299 29.7424 21.0899C29.0994 22.5265 28.2378 23.844 27.1999 25H4.80152C3.7652 23.8463 2.90475 22.5322 2.26244 21.0999C1.79244 20.0499 1.96244 18.8199 2.70244 17.9299L5.84122 14.1851C4.66544 12.9409 4.00244 11.2877 4.00244 9.57Z" fill="#9B9B9B"/>
<path d="M23.3024 10.7799C23.3724 10.8499 23.4424 10.9299 23.5024 11.0099L25.128 12.9466C25.9356 12.0173 26.3924 10.8194 26.3924 9.58V8.96C26.3924 8.77 26.2424 8.62 26.0524 8.62H25.4324C24.2634 8.62 23.1454 9.01316 22.2461 9.73114C22.6243 10.0529 22.9775 10.4036 23.3024 10.7799Z" fill="#636363"/>
<path d="M9.75652 9.72301C8.85554 9.00993 7.73216 8.60999 6.57243 8.60999H5.95243C5.76243 8.60999 5.61243 8.75999 5.61243 8.94999V9.56999C5.61243 10.8102 6.06983 12.0089 6.88605 12.9385L8.50244 11.0099C8.53244 10.9699 8.56494 10.9299 8.59744 10.8899C8.62994 10.8499 8.66244 10.8099 8.69244 10.7699C9.02009 10.3944 9.37587 10.0443 9.75652 9.72301Z" fill="#636363"/>
<path d="M11.7824 15.5H11.7024C10.5924 15.5 9.55242 15.99 8.83242 16.83L6.24242 19.81C5.01242 21.23 4.47242 23.09 4.75242 24.94C7.30482 27.8211 10.9509 29.7114 15.0489 29.9692C15.0998 29.9736 15.151 29.9772 15.2024 29.98C15.2631 29.9823 15.3238 29.9845 15.3844 29.9867C15.4137 29.9879 15.4431 29.989 15.4724 29.99C15.6516 29.9959 15.8292 30 16.0024 30C16.1832 30 16.3687 29.9952 16.5524 29.9889V29.99C16.6227 29.9875 16.6928 29.9846 16.7628 29.9812C16.7727 29.9808 16.7826 29.9804 16.7924 29.98C16.8164 29.9788 16.8403 29.9774 16.8642 29.9759C21.0077 29.7457 24.6968 27.8473 27.2724 24.94C27.5524 23.09 27.0124 21.23 25.7824 19.81L23.1924 16.83C22.4724 15.99 21.4324 15.5 20.3224 15.5H20.2424C18.2124 15.54 16.5624 17.24 16.5524 19.3V21.4H15.4724V19.3C15.4624 17.24 13.8124 15.54 11.7824 15.5Z" fill="#D3D3D3"/>
<path d="M10.0624 17.88C10.4624 17.4 11.0724 17.1 11.7524 17.11C12.9224 17.13 13.8524 18.12 13.8524 19.3V21.4346C12.0322 21.6832 10.6224 23.2438 10.6224 25.14C10.6224 27.678 12.5826 29.7869 15.1066 29.9739C14.6836 29.9491 14.2653 29.9069 13.8524 29.848V29.85C12.126 29.606 10.4876 29.0628 9.00336 28.278C8.82761 28.1854 8.65393 28.0893 8.48242 27.99V27.9838C6.0495 26.451 5.55123 23.0722 7.46243 20.87L10.0624 17.88Z" fill="#636363"/>
<path d="M15.2673 29.9824C15.5008 29.9936 15.7356 29.9995 15.9717 30C15.7421 29.9993 15.505 29.9912 15.2673 29.9824Z" fill="#636363"/>
<path d="M16.0345 30C16.2631 29.9995 16.4908 29.9937 16.7172 29.9829C16.4913 29.9914 16.2595 29.9993 16.0345 30Z" fill="#636363"/>
<path d="M16.9242 29.9716C17.3449 29.9457 17.7612 29.9024 18.1724 29.8429V29.85C20.0124 29.59 21.7524 28.99 23.3124 28.12C25.9424 26.66 26.5324 23.14 24.5624 20.87L21.9624 17.88C21.5624 17.4 20.9524 17.1 20.2724 17.11C19.1024 17.13 18.1724 18.12 18.1724 19.3V21.4387C19.9853 21.7008 21.3724 23.2626 21.3724 25.14C21.3724 27.6758 19.4308 29.7768 16.9242 29.9716Z" fill="#636363"/>
<path d="M12 18C11.4477 18 11 18.4477 11 19V20C11 20.5523 11.4477 21 12 21C12.5523 21 13 20.5523 13 20V19C13 18.4477 12.5523 18 12 18Z" fill="#212121"/>
<path d="M20 18C19.4477 18 19 18.4477 19 19V20C19 20.5523 19.4477 21 20 21C20.5523 21 21 20.5523 21 20V19C21 18.4477 20.5523 18 20 18Z" fill="#212121"/>
<path d="M17.5024 27.6801C16.9024 27.6801 16.3724 27.4201 16.0024 27.0001C15.6324 27.4201 15.1024 27.6801 14.5024 27.6801C13.4024 27.6801 12.5024 26.7801 12.5024 25.6801C12.5024 25.4001 12.7224 25.1801 13.0024 25.1801C13.2824 25.1801 13.5024 25.4001 13.5024 25.6801C13.5024 26.2301 13.9524 26.6801 14.5024 26.6801C15.0524 26.6801 15.5024 26.2301 15.5024 25.6801C15.5024 25.4001 15.7224 25.1801 16.0024 25.1801C16.2824 25.1801 16.5024 25.4001 16.5024 25.6801C16.5024 26.2301 16.9524 26.6801 17.5024 26.6801C18.0524 26.6801 18.5024 26.2301 18.5024 25.6801C18.5024 25.4001 18.7224 25.1801 19.0024 25.1801C19.2824 25.1801 19.5024 25.4001 19.5024 25.6801C19.5024 26.7801 18.6024 27.6801 17.5024 27.6801Z" fill="#212121"/>
<path d="M15.3225 24.32L14.0725 23.06C13.4625 22.45 13.8925 21.4 14.7525 21.4H17.2525C18.1125 21.4 18.5425 22.45 17.9325 23.06L16.6825 24.32C16.3125 24.7 15.7025 24.7 15.3225 24.32Z" fill="#212121"/>
</svg>

<svg xmlns="http://www.w3.org/2000/svg" width="32" height="32" fill="none"><path fill="#9B9B9B" d="M4.002 9.57V8.34c0-.74.6-1.34 1.34-1.34h1.23c1.682 0 3.302.636 4.537 1.766a9.633 9.633 0 0 1 4.893-1.326c1.79 0 3.463.484 4.897 1.331A6.696 6.696 0 0 1 25.433 7h1.23c.74 0 1.34.6 1.34 1.34v1.23a6.728 6.728 0 0 1-1.837 4.613l3.136 3.737a3 3 0 0 1 .44 3.17A15.071 15.071 0 0 1 27.2 25H4.802a15.062 15.062 0 0 1-2.54-3.9c-.47-1.05-.3-2.28.44-3.17l3.14-3.745a6.728 6.728 0 0 1-1.84-4.615Z"/><path fill="#636363" d="M23.302 10.78c.07.07.14.15.2.23l1.626 1.937a5.146 5.146 0 0 0 1.264-3.367v-.62c0-.19-.15-.34-.34-.34h-.62a5.094 5.094 0 0 0-3.186 1.111 9.7 9.7 0 0 1 1.056 1.049ZM9.757 9.723A5.142 5.142 0 0 0 6.572 8.61h-.62c-.19 0-.34.15-.34.34v.62c0 1.24.458 2.439 1.274 3.368l1.616-1.928c.03-.04.063-.08.095-.12.033-.04.065-.08.095-.12a9.811 9.811 0 0 1 1.065-1.047Z"/><path fill="#D3D3D3" d="M11.782 15.5h-.08c-1.11 0-2.15.49-2.87 1.33l-2.59 2.98a6.353 6.353 0 0 0-1.49 5.13 14.985 14.985 0 0 0 10.45 5.04l.182.007c.03 0 .06.002.088.003.18.006.357.01.53.01.181 0 .367-.005.55-.011v.001l.21-.009.03-.001.072-.004a14.986 14.986 0 0 0 10.408-5.036c.28-1.85-.26-3.71-1.49-5.13l-2.59-2.98a3.775 3.775 0 0 0-2.87-1.33h-.08c-2.03.04-3.68 1.74-3.69 3.8v2.1h-1.08v-2.1c-.01-2.06-1.66-3.76-3.69-3.8Z"/><path fill="#636363" d="M10.062 17.88c.4-.48 1.01-.78 1.69-.77 1.17.02 2.1 1.01 2.1 2.19v2.135a3.741 3.741 0 0 0-3.23 3.705 4.848 4.848 0 0 0 4.485 4.834 15.165 15.165 0 0 1-1.255-.126v.002a14.812 14.812 0 0 1-5.37-1.86v-.006c-2.432-1.533-2.93-4.912-1.02-7.114l2.6-2.99ZM15.267 29.982ZM16.035 30ZM16.924 29.972c.42-.026.837-.07 1.248-.13v.008c1.84-.26 3.58-.86 5.14-1.73 2.63-1.46 3.22-4.98 1.25-7.25l-2.6-2.99a2.15 2.15 0 0 0-1.69-.77c-1.17.02-2.1 1.01-2.1 2.19v2.139a3.742 3.742 0 0 1 3.2 3.701c0 2.536-1.941 4.637-4.448 4.832Z"/><path fill="#212121" d="M12 18a1 1 0 0 0-1 1v1a1 1 0 1 0 2 0v-1a1 1 0 0 0-1-1ZM20 18a1 1 0 0 0-1 1v1a1 1 0 1 0 2 0v-1a1 1 0 0 0-1-1ZM17.502 27.68c-.6 0-1.13-.26-1.5-.68-.37.42-.9.68-1.5.68-1.1 0-2-.9-2-2 0-.28.22-.5.5-.5s.5.22.5.5c0 .55.45 1 1 1s1-.45 1-1c0-.28.22-.5.5-.5s.5.22.5.5c0 .55.45 1 1 1s1-.45 1-1c0-.28.22-.5.5-.5s.5.22.5.5c0 1.1-.9 2-2 2ZM15.322 24.32l-1.25-1.26c-.61-.61-.18-1.66.68-1.66h2.5c.86 0 1.29 1.05.68 1.66l-1.25 1.26c-.37.38-.98.38-1.36 0Z"/></svg>
